resources/images/AllianceIconWhite.svg

<svg xmlns="http://www.w3.org/2000/svg" width="834" height="528" preserveAspectRatio="xMidYMid meet" shape-rendering="geometricPrecision" image-rendering="optimizeQuality" fill-rule="evenodd" xmlns:v="https://vecta.io/nano"><path d="M135.5-.5h5c19.268 12.6427 38.934 24.8094 59 36.5 2.084 1.5007 3.417 3.5007 4 6l-134 239.5c-1.5009 1.252-3.1675 2.252-5 3-22.1963-12.592-43.863-25.925-65-40v-5l136-240zm557 0h5l136 240v5c-20.919 13.734-42.252 26.901-64 39.5-1.964.624-3.631.124-5-1.5L629.5 42c.583-2.4993 1.916-4.4993 4-6 20.066-11.6906 39.732-23.8573 59-36.5zm-260 65c22.065-.5822 44.065.2512 66 2.5l85 17c5.667.6667 11.333.6667 17 0 9.847-1.5488 19.514-3.5488 29-6L734 264.5c-10.863 11.197-22.029 22.03-33.5 32.5-7.415 5.46-15.248 10.293-23.5 14.5-79.554-66.724-165.721-123.891-258.5-171.5-4.198-2.514-8.698-4.347-13.5-5.5-14.009 3.961-27.842 8.461-41.5 13.5-13.712 20.712-31.045 37.712-52 51-13.542 7.51-28.042 11.677-43.5 12.5-3.583-.558-7.083-1.391-10.5-2.5-2.082-2.409-3.082-5.243-3-8.5.561-6.244 2.061-12.244 4.5-18 21.319-34.477 44.486-67.644 69.5-99.5 11.022-5.6729 22.688-9.3396 35-11 23.037-3.569 46.037-6.069 69-7.5zm-231 15c10.445 5.724 21.112 11.224 32 16.5 18.501 4.528 37.168 8.195 56 11-17.45 23.055-33.283 47.222-47.5 72.5-11.16 34.914 1.34 50.747 37.5 47.5 17.364-2.453 33.364-8.453 48-18 18.377-12.71 33.71-28.376 46-47 10.749-4.255 21.749-7.255 33-9 66.843 32.897 129.843 71.564 189 116 24.877 18.276 49.21 37.276 73 57 17.316 16.374 17.316 32.708 0 49-10.221 5.794-20.888 6.794-32 3L502 298.5c-9.201 3.025-10.701 8.191-4.5 15.5L622 389.5c3.242 24.405-7.258 37.905-31.5 40.5-4.333.667-8.667.667-13 0l-109-63c-8.528-.156-11.695 4.011-9.5 12.5l107 63c1.107 12.35-2.726 22.85-11.5 31.5-3.448 1.927-7.115 3.261-11 4-8.72.839-17.387.505-26-1l-85-41c-9.548-.747-12.715 3.42-9.5 12.5l2.5 2.5 82 40c-16.901 24.862-40.068 33.362-69.5 25.5-18.921-3.688-37.421-8.855-55.5-15.5 16.937-19.691 18.437-40.524 4.5-62.5-10.469-13.324-23.969-19.657-40.5-19 1.841-25.828-8.825-44.328-32-55.5-5.764-2.214-11.597-3.047-17.5-2.5 2.293-30.025-10.873-49.525-39.5-58.5-15.974-2.677-29.141 2.157-39.5 14.5-2.973 4.474-6.14 8.807-9.5 13-13.651-30.999-36.318-40.832-68-29.5l-11 9c-10.856-14.036-22.19-27.702-34-41l106-189.5z" fill="#fdfdfd"/><path fill="#fbfbfb" d="M158.5 311.5c17.008.509 28.175 8.842 33.5 25 1.31 7.371.31 14.371-3 21-7.473 10.107-15.306 19.94-23.5 29.5-18.101 6.072-31.601.572-40.5-16.5-3.601-8.846-3.267-17.512 1-26 7.473-10.107 15.306-19.94 23.5-29.5 3.071-1.296 6.071-2.462 9-3.5z"/><path d="M246.5 318.5c24.731 2.84 35.564 16.507 32.5 41l-58 81c-10.712 9.718-22.212 10.552-34.5 2.5-12.299-9.422-16.465-21.588-12.5-36.5 19.728-28.396 40.228-56.229 61.5-83.5 3.553-2.121 7.22-3.621 11-4.5zm47 59c18.901-.264 30.734 8.736 35.5 27 1.405 7.217.071 13.884-4 20L279.5 486c-19.61 8.459-34.11 2.959-43.5-16.5-3.226-7.013-3.226-14.013 0-21l47-65c3.101-2.852 6.601-4.852 10.5-6z" fill="#fcfcfc"/><path fill="#fbfbfb" d="M335.5 527.5h-9c-21.146-6.961-29.313-21.294-24.5-43 11.116-15.451 22.616-30.617 34.5-45.5 20.597-6.775 34.764.058 42.5 20.5 2.738 8.698 1.405 16.698-4 24-10.118 13.786-20.618 27.286-31.5 40.5-2.658 1.478-5.325 2.645-8 3.5z"/></svg>

<?xml version="1.0" encoding="UTF-8"?>
<!DOCTYPE svg PUBLIC "-//W3C//DTD SVG 1.1//EN" "http://www.w3.org/Graphics/SVG/1.1/DTD/svg11.dtd">
<svg xmlns="http://www.w3.org/2000/svg" version="1.1" width="834px" height="528px" viewBox="0 0 834 528" preserveAspectRatio="xMidYMid meet" style="shape-rendering:geometricPrecision; text-rendering:geometricPrecision; image-rendering:optimizeQuality; fill-rule:evenodd; clip-rule:evenodd" xmlns:xlink="http://www.w3.org/1999/xlink">
<g><path style="opacity:1" fill="#fdfdfd" d="M 135.5,-0.5 C 137.167,-0.5 138.833,-0.5 140.5,-0.5C 159.768,12.1427 179.434,24.3094 199.5,36C 201.584,37.5007 202.917,39.5007 203.5,42C 159.221,122.06 114.554,201.893 69.5,281.5C 67.9991,282.752 66.3325,283.752 64.5,284.5C 42.3037,271.908 20.637,258.575 -0.5,244.5C -0.5,242.833 -0.5,241.167 -0.5,239.5C 44.818,159.535 90.1513,79.5352 135.5,-0.5 Z"/></g>
<g><path style="opacity:1" fill="#fdfdfd" d="M 692.5,-0.5 C 694.167,-0.5 695.833,-0.5 697.5,-0.5C 742.849,79.5352 788.182,159.535 833.5,239.5C 833.5,241.167 833.5,242.833 833.5,244.5C 812.581,258.234 791.248,271.401 769.5,284C 767.536,284.624 765.869,284.124 764.5,282.5C 718.86,202.722 673.86,122.555 629.5,42C 630.083,39.5007 631.416,37.5007 633.5,36C 653.566,24.3094 673.232,12.1427 692.5,-0.5 Z"/></g>
<g><path style="opacity:1" fill="#fdfdfd" d="M 432.5,64.5 C 454.565,63.9178 476.565,64.7512 498.5,67C 526.867,72.5085 555.2,78.1752 583.5,84C 589.167,84.6667 594.833,84.6667 600.5,84C 610.347,82.4512 620.014,80.4512 629.5,78C 665.047,139.944 699.88,202.11 734,264.5C 723.137,275.697 711.971,286.53 700.5,297C 693.085,302.46 685.252,307.293 677,311.5C 597.446,244.776 511.279,187.609 418.5,140C 414.302,137.486 409.802,135.653 405,134.5C 390.991,138.461 377.158,142.961 363.5,148C 349.788,168.712 332.455,185.712 311.5,199C 297.958,206.51 283.458,210.677 268,211.5C 264.417,210.942 260.917,210.109 257.5,209C 255.418,206.591 254.418,203.757 254.5,200.5C 255.061,194.256 256.561,188.256 259,182.5C 280.319,148.023 303.486,114.856 328.5,83C 339.522,77.3271 351.188,73.6604 363.5,72C 386.537,68.431 409.537,65.931 432.5,64.5 Z"/></g>
<g><path style="opacity:1" fill="#fdfdfd" d="M 201.5,79.5 C 211.945,85.224 222.612,90.724 233.5,96C 252.001,100.528 270.668,104.195 289.5,107C 272.05,130.055 256.217,154.222 242,179.5C 230.84,214.414 243.34,230.247 279.5,227C 296.864,224.547 312.864,218.547 327.5,209C 345.877,196.29 361.21,180.624 373.5,162C 384.249,157.745 395.249,154.745 406.5,153C 473.343,185.897 536.343,224.564 595.5,269C 620.377,287.276 644.71,306.276 668.5,326C 685.816,342.374 685.816,358.708 668.5,375C 658.279,380.794 647.612,381.794 636.5,378C 591.897,351.053 547.064,324.553 502,298.5C 492.799,301.525 491.299,306.691 497.5,314C 539.083,339.041 580.583,364.208 622,389.5C 625.242,413.905 614.742,427.405 590.5,430C 586.167,430.667 581.833,430.667 577.5,430C 541.33,408.747 504.997,387.747 468.5,367C 459.972,366.844 456.805,371.011 459,379.5C 494.337,401.004 530.004,422.004 566,442.5C 567.107,454.85 563.274,465.35 554.5,474C 551.052,475.927 547.385,477.261 543.5,478C 534.78,478.839 526.113,478.505 517.5,477C 489.289,463.061 460.955,449.394 432.5,436C 422.952,435.253 419.785,439.42 423,448.5C 423.833,449.333 424.667,450.167 425.5,451C 453.042,463.955 480.375,477.289 507.5,491C 490.599,515.862 467.432,524.362 438,516.5C 419.079,512.812 400.579,507.645 382.5,501C 399.437,481.309 400.937,460.476 387,438.5C 376.531,425.176 363.031,418.843 346.5,419.5C 348.341,393.672 337.675,375.172 314.5,364C 308.736,361.786 302.903,360.953 297,361.5C 299.293,331.475 286.127,311.975 257.5,303C 241.526,300.323 228.359,305.157 218,317.5C 215.027,321.974 211.86,326.307 208.5,330.5C 194.849,299.501 172.182,289.668 140.5,301C 136.682,304.185 133.015,307.185 129.5,310C 118.644,295.964 107.31,282.298 95.5,269C 131.491,206.182 166.824,143.016 201.5,79.5 Z"/></g>
<g><path style="opacity:1" fill="#fbfbfb" d="M 158.5,311.5 C 175.508,312.009 186.675,320.342 192,336.5C 193.31,343.871 192.31,350.871 189,357.5C 181.527,367.607 173.694,377.44 165.5,387C 147.399,393.072 133.899,387.572 125,370.5C 121.399,361.654 121.733,352.988 126,344.5C 133.473,334.393 141.306,324.56 149.5,315C 152.571,313.704 155.571,312.538 158.5,311.5 Z"/></g>
<g><path style="opacity:1" fill="#fcfcfc" d="M 246.5,318.5 C 271.231,321.34 282.064,335.007 279,359.5C 260.055,386.779 240.721,413.779 221,440.5C 210.288,450.218 198.788,451.052 186.5,443C 174.201,433.578 170.035,421.412 174,406.5C 193.728,378.104 214.228,350.271 235.5,323C 239.053,320.879 242.72,319.379 246.5,318.5 Z"/></g>
<g><path style="opacity:1" fill="#fcfcfc" d="M 293.5,377.5 C 312.401,377.236 324.234,386.236 329,404.5C 330.405,411.717 329.071,418.384 325,424.5C 309.833,445 294.667,465.5 279.5,486C 259.89,494.459 245.39,488.959 236,469.5C 232.774,462.487 232.774,455.487 236,448.5C 251.422,426.657 267.088,404.99 283,383.5C 286.101,380.648 289.601,378.648 293.5,377.5 Z"/></g>
<g><path style="opacity:1" fill="#fbfbfb" d="M 335.5,527.5 C 332.5,527.5 329.5,527.5 326.5,527.5C 305.354,520.539 297.187,506.206 302,484.5C 313.116,469.049 324.616,453.883 336.5,439C 357.097,432.225 371.264,439.058 379,459.5C 381.738,468.198 380.405,476.198 375,483.5C 364.882,497.286 354.382,510.786 343.5,524C 340.842,525.478 338.175,526.645 335.5,527.5 Z"/></g>
</svg>
